X:1
T:English Suite IV Menuet I & II
T:BWV 809
T:J. S. Bach
%%score { ( 1 4 ) | ( 2 3 ) }
L:1/8
Q:1/4=144
M:3/4
K:F
V:1 treble nm="Harp"
V:4 treble 
V:2 bass 
V:3 bass 
V:1
"^Vivace" FG A/4G/4A/4G/4A/4G/4A/4G/4 A/4G/4A/4G/4 F/G/ | AB c2 f2 | AB c2 d2 | %3
 c/4B/4c/4B/4c/4B/4c/4B/4 c/4B/4c/4B/4c/4B/4c/4B/4 c/4B/4c/4B/4c/4B/4c/4B/4 | %4
 GA B/4A/4B/4A/4B/4A/4B/4A/4 B/4A/4B/4A/4 G/A/ | Bc d2 g2 | fe dc BA | GA BA GF | %8
 A=B c/4B/4c/4B/4c/4B/4c/4B/4 c/4B/4c/4B/4 A/B/ | cd ed fe | %10
 ef g/4f/4g/4f/4g/4f/4g/4f/4 g/4f/4g/4f/4 e/f/ | g6 | a2 de fd | g2 =B2 c2- | %14
 cf e/4d/4e/4d/4e/4d/4e/4d/4 e/4d/4e/4d/4 c | c6 | FG A/4G/4A/4G/4A/4G/4A/4G/4 A/4G/4A/4G/4 F/G/ | %17
 AB c2 f2 | AB c2 d2 | c/4B/4c/4B/4c/4B/4c/4B/4 c/4B/4c/4B/4c/4B/4c/4B/4 c/4B/4c/4B/4c/4B/4c/4B/4 | %20
 GA B/4A/4B/4A/4B/4A/4B/4A/4 B/4A/4B/4A/4 G/A/ | Bc d2 g2 | fe dc BA | GA BA GF | %24
 A=B c/4B/4c/4B/4c/4B/4c/4B/4 c/4B/4c/4B/4 A/B/ | cd ed fe | %26
 ef g/4f/4g/4f/4g/4f/4g/4f/4 g/4f/4g/4f/4 e/f/ | g6 | a2 de fd | g2 =B2 c2- | %30
 cf e/4d/4e/4d/4e/4d/4e/4d/4 e/4d/4e/4d/4 c | c6 | ef g/4f/4g/4f/4g/4f/4g/4f/4 g/4f/4g/4f/4 e/f/ | %33
 gf ed ec | fg a/4g/4a/4g/4a/4g/4a/4g/4 a/4g/4a/4g/4 f/g/ | a6 | A=B ^c2 d2 | ^cd e2 f2 | %38
 fe fe d^c | d6 | f2 _ed cd | _ed cB d2 | g2 fe de | fe dc de | %44
 ef g/4f/4g/4f/4g/4f/4g/4f/4 g/4f/4g/4f/4 e/f/ | ab c'2 c2 | d2 e/f/g fe | f6 | %48
 ef g/4f/4g/4f/4g/4f/4g/4f/4 g/4f/4g/4f/4 e/f/ | gf ed ec | %50
 fg a/4g/4a/4g/4a/4g/4a/4g/4 a/4g/4a/4g/4 f/g/ | a6 | A=B ^c2 d2 | ^cd e2 f2 | fe fe d^c | d6 | %56
 f2 _ed cd | _ed cB d2 | g2 fe de | fe dc de | ef g/4f/4g/4f/4g/4f/4g/4f/4 g/4f/4g/4f/4 e/f/ | %61
 ab c'2 c2 | d2 e/f/g fe | f6 | f2 e2 d2 | d/4^c/4d/4c/4d/4c/4d/4c/4{c} d4 | A2 BA GB | A2 GF ED | %68
 f2 e2 d2 | b2 a4- | a2 gf ed | %71
 d/4^c/4d/4c/4d/4c/4d/4c/4 d/4c/4d/4c/4d/4c/4d/4c/4 d/4c/4d/4c/4d/4c/4d/4c/4 | f2 e2 d2 | %73
 d/4^c/4d/4c/4d/4c/4d/4c/4{c} d4 | A2 BA GB | A2 GF ED | f2 e2 d2 | b2 a4- | a2 gf ed | %79
 d/4^c/4d/4c/4d/4c/4d/4c/4 d/4c/4d/4c/4d/4c/4d/4c/4 d/4c/4d/4c/4d/4c/4d/4c/4 | e2 fe de | f2 B4- | %82
 B2 AG AF | G2 C2 c2- | c2 BA GF | _e2 e/4d/4e/4d/4e/4d/4e/4d/4 e/4d/4e/4d/4e/4d/4e/4d/4 | %86
 _e/4d/4e/4d/4e/4d/4e/4d/4 c=B AG | f2 f/4e/4f/4e/4f/4e/4f/4e/4 f/4e/4f/4e/4f/4e/4f/4e/4 | %88
 f/4e/4f/4e/4g fe dc | b2 ag af | d2 g2 e2 | f6 | A2 c/4=B/4c/4B/4c/4B/4c/4B/4 c2 | =B2 g4- | %94
 g2 fe fd | e2 d^c =BA | f2 e2 d2 | d/4^c/4d/4c/4d/4c/4d/4c/4 d4 | A2 BA GB | A2 GF ED | B2 A2 G2 | %101
 _e2 d^c d2- | de f/4e/4f/4e/4f/4e/4f/4e/4 f/4e/4f/4e/4 d | d6 | e2 fe de | f2 B4- | B2 AG AF | %107
 G2 C2 c2- | c2 BA GF | _e2 e/4d/4e/4d/4e/4d/4e/4d/4 e/4d/4e/4d/4e/4d/4e/4d/4 | %110
 _e/4d/4e/4d/4e/4d/4e/4d/4 c=B AG | f2 f/4e/4f/4e/4f/4e/4f/4e/4 f/4e/4f/4e/4f/4e/4f/4e/4 | %112
 f/4e/4f/4e/4g fe dc | b2 ag af | d2 g2 e2 | f6 | A2 c/4=B/4c/4B/4c/4B/4c/4B/4 c2 | =B2 g4- | %118
 g2 fe fd | e2 d^c =BA | f2 e2 d2 | d/4^c/4d/4c/4d/4c/4d/4c/4 d4 | A2 BA GB | A2 GF ED | B2 A2 G2 | %125
 _e2 d^c d2- | de f/4e/4f/4e/4f/4e/4f/4e/4 f/4e/4f/4e/4 d | d6 | %128
 FG A/4G/4A/4G/4A/4G/4A/4G/4 A/4G/4A/4G/4 F/G/ | AB c2 f2 | AB c2 d2 | %131
 c/4B/4c/4B/4c/4B/4c/4B/4 c/4B/4c/4B/4c/4B/4c/4B/4 c/4B/4c/4B/4c/4B/4c/4B/4 | %132
 GA B/4A/4B/4A/4B/4A/4B/4A/4 B/4A/4B/4A/4 G/A/ | Bc d2 g2 | fe dc BA | GA BA GF | %136
 A=B c/4B/4c/4B/4c/4B/4c/4B/4 c/4B/4c/4B/4 A/B/ | cd ed fe | %138
 ef g/4f/4g/4f/4g/4f/4g/4f/4 g/4f/4g/4f/4 e/f/ | g6 | a2 de fd | g2 =B2 c2- | %142
 cf e/4d/4e/4d/4e/4d/4e/4d/4 e/4d/4e/4d/4 c | c6 | ef g/4f/4g/4f/4g/4f/4g/4f/4 g/4f/4g/4f/4 e/f/ | %145
 gf ed ec | fg a/4g/4a/4g/4a/4g/4a/4g/4 a/4g/4a/4g/4 f/g/ | a6 | A=B ^c2 d2 | ^cd e2 f2 | %150
 fe fe d^c | d6 | f2 _ed cd | _ed cB d2 | g2 fe de | fe dc de | %156
 ef g/4f/4g/4f/4g/4f/4g/4f/4 g/4f/4g/4f/4 e/f/ | ab c'2 c2 | d2 e/f/g fe | f6 |] %160
V:2
 F,2 E,D, E,C, | F,2 F,,G,, A,,B,, | C,D, E,G, ^F,A, | G,A, B,A, G,F, | E,D, C,D, E,F, | %5
 G,2 G,,A,, B,,G,, | C,2 D,2 E,2 | F,2 C,2 A,,2 | F,,2 F,E, F,D, | E,2 F,2 G,2 | C,D, E,D, C,D, | %11
 E,D, F,E, D,C, | F,E, F,4- | F,E, F,G, A,E, | F,D, G,2 G,,2 | C,B,, C,D, C,B,, | A,,2 B,,2 C,2 | %17
 F,2 F,,G,, A,,B,, | C,D, E,G, ^F,A, | G,A, B,A, G,F, | E,D, C,D, E,F, | G,2 G,,A,, B,,G,, | %22
 C,2 D,2 E,2 | F,2 C,2 A,,2 | F,,2 F,E, F,D, | E,2 F,2 G,2 | C,D, E,D, C,D, | E,D, F,E, D,C, | %28
 F,E, F,4- | F,E, F,G, A,E, | F,D, G,2 G,,2 | C,2 E,2 G,2 | CB, A,G, A,F, | C2 C,2 B,,2 | %34
 A,,C, B,,A,, B,,C, | F,,2 F,E, F,D, | ^C,D, E,G, F,A, | A,,=B,, ^C,E, D,F, | B,,2 G,,2 A,,2 | %39
 D,,A,, D,E, F,G, | A,G, F,G, A,2 | B,2 B,,F, G,A, | =B,A, G,A, B,2 | C2 C,D CB, | A,B, A,G, F,E, | %45
 F,G, F,E, D,C, | B,,A,, G,,2 C,2 | F,,C, F,G, A,B, | CB, A,G, A,F, | C2 C,2 B,,2 | %50
 A,,C, B,,A,, B,,C, | F,,2 F,E, F,D, | ^C,D, E,G, F,A, | A,,=B,, ^C,E, D,F, | B,,2 G,,2 A,,2 | %55
 D,,A,, D,E, F,G, | A,G, F,G, A,2 | B,2 B,,F, G,A, | =B,A, G,A, B,2 | C2 C,D CB, | A,B, A,G, F,E, | %61
 F,G, F,E, D,C, | B,,A,, G,,2 C,2 | F,,6 | D,A, E,A, F,A, | G,A, F,A, E,A, | F,A, G,F, E,D, | %67
 D,/4^C,/4D,/4C,/4D,/4C,/4D,/4C,/4 D,4 | D,D E,D F,D | z D ^CA, D2 | B,6 | z B, A,G, F,E, | %72
 D,A, E,A, F,A, | G,A, F,A, E,A, | F,A, G,F, E,D, | D,/4^C,/4D,/4C,/4D,/4C,/4D,/4C,/4 D,4 | %76
 D,D E,D F,D | z D ^CA, D2 | B,6 | z F ED ^C=B, | A,B, A,G, F,E, | z E, F,G, A,B, | C6 | %83
 E,F, E,D, C,B,, | z B,, C,2 F,2- | F,G, F,_E, D,C, | z C, D,2 G,2- | G,A, G,F, E,D, | %88
 C,E, D,C, B,,A,, | G,,D, E,C, F,A,, | B,,D, G,,B,, C,C,, | F,,A,, B,,C, D,E, | F,A, G,F, E,D, | %93
 G,F, E,D, ^C,=B,, | z E, A,2 G,2 | A,,A, =B,,A, ^C,A, | D,A, E,A, F,A, | G,A, F,A, E,A, | %98
 F,A, G,F, E,D, | D,/4^C,/4D,/4C,/4D,/4C,/4D,/4C,/4 D,4 | z D _ED ^CD | G,B, A,G, F,E, | %102
 D,G, A,2 A,,2 | D,F ED ^C=B, | A,B, A,G, F,E, | z E, F,G, A,B, | C6 | E,F, E,D, C,B,, | %108
 z B,, C,2 F,2- | F,G, F,_E, D,C, | z C, D,2 G,2- | G,A, G,F, E,D, | C,E, D,C, B,,A,, | %113
 G,,D, E,C, F,A,, | B,,D, G,,B,, C,C,, | F,,A,, B,,C, D,E, | F,A, G,F, E,D, | G,F, E,D, ^C,=B,, | %118
 z E, A,2 G,2 | A,,A, =B,,A, ^C,A, | D,A, E,A, F,A, | G,A, F,A, E,A, | F,A, G,F, E,D, | %123
 D,/4^C,/4D,/4C,/4D,/4C,/4D,/4C,/4 D,4 | z D _ED ^CD | G,B, A,G, F,E, | D,G, A,2 A,,2 | %127
 D,2 A,,2 D,,2 | F,2 E,D, E,C, | F,2 F,,G,, A,,B,, | C,D, E,G, ^F,A, | G,A, B,A, G,F, | %132
 E,D, C,D, E,F, | G,2 G,,A,, B,,G,, | C,2 D,2 E,2 | F,2 C,2 A,,2 | F,,2 F,E, F,D, | E,2 F,2 G,2 | %138
 C,D, E,D, C,D, | E,D, F,E, D,C, | F,E, F,4- | F,E, F,G, A,E, | F,D, G,2 G,,2 | C,2 E,2 G,2 | %144
 CB, A,G, A,F, | C2 C,2 B,,2 | A,,C, B,,A,, B,,C, | F,,2 F,E, F,D, | ^C,D, E,G, F,A, | %149
 A,,=B,, ^C,E, D,F, | B,,2 G,,2 A,,2 | D,,A,, D,E, F,G, | A,G, F,G, A,2 | B,2 B,,F, G,A, | %154
 =B,A, G,A, B,2 | C2 C,D CB, | A,B, A,G, F,E, | F,G, F,E, D,C, | B,,A,, G,,2 C,2 | F,,6 |] %160
V:3
 x6 | x6 | x6 | x6 | x6 | x6 | x6 | x6 | x6 | x6 | x6 | x6 | x6 | x6 | x6 | x6 | x6 | x6 | x6 | %19
 x6 | x6 | x6 | x6 | x6 | x6 | x6 | x6 | x6 | x6 | x6 | x6 | x6 | x6 | x6 | x6 | x6 | x6 | x6 | %38
 x6 | x6 | x6 | x6 | x6 | x6 | x6 | x6 | x6 | x6 | x6 | x6 | x6 | x6 | x6 | x6 | x6 | x6 | x6 | %57
 x6 | x6 | x6 | x6 | x6 | x6 | x6 | x6 | x6 | x6 | x6 | x6 | G,4 z F, | x6 | x6 | x6 | x6 | x6 | %75
 x6 | x6 | G,4 z F, | x6 | x6 | x6 | D,6 | x6 | x6 | A,,6 | B,,6 | =B,,6 | C,6 | x6 | x6 | x6 | %91
 x6 | x6 | x6 | ^C,2 D, z B,, z | x6 | x6 | x6 | x6 | x6 | G,4 z2 | x6 | x6 | x6 | x6 | D,6 | x6 | %107
 x6 | A,,6 | B,,6 | =B,,6 | C,6 | x6 | x6 | x6 | x6 | x6 | x6 | ^C,2 D, z B,, z | x6 | x6 | x6 | %122
 x6 | x6 | G,4 z2 | x6 | x6 | x6 | x6 | x6 | x6 | x6 | x6 | x6 | x6 | x6 | x6 | x6 | x6 | x6 | x6 | %141
 x6 | x6 | x6 | x6 | x6 | x6 | x6 | x6 | x6 | x6 | x6 | x6 | x6 | x6 | x6 | x6 | x6 | x6 | x6 |] %160
V:4
 x6 | x6 | x6 | x6 | x6 | x6 | x6 | x6 | x6 | x6 | x6 | x6 | x6 | x6 | x6 | x6 | x6 | x6 | x6 | %19
 x6 | x6 | x6 | x6 | x6 | x6 | x6 | x6 | x6 | x6 | x6 | x6 | x6 | x6 | x6 | x6 | x6 | x6 | x6 | %38
 x6 | x6 | x6 | x6 | x6 | x6 | x6 | x6 | x6 | x6 | x6 | x6 | x6 | x6 | x6 | x6 | x6 | x6 | x6 | %57
 x6 | x6 | x6 | x6 | x6 | x6 | x6 | x6 | x6 | x6 | x6 | x6 | x6 | z ^C DE FG | A6 | x6 | x6 | x6 | %75
 x6 | x6 | x6 | z ^C DE FG | A6 | ^c6 | x6 | x6 | x6 | x6 | x6 | x6 | x6 | x6 | x6 | d2 B2 G2 | %91
 A6 | x6 | x6 | x6 | x6 | x6 | x6 | x6 | x6 | x6 | x6 | z2 ^c4 | x6 | ^c6 | x6 | x6 | x6 | x6 | %109
 x6 | x6 | x6 | x6 | x6 | d2 B2 G2 | A6 | x6 | x6 | x6 | x6 | x6 | x6 | x6 | x6 | x6 | x6 | %126
 z2 ^c4 | x6 | x6 | x6 | x6 | x6 | x6 | x6 | x6 | x6 | x6 | x6 | x6 | x6 | x6 | x6 | x6 | x6 | x6 | %145
 x6 | x6 | x6 | x6 | x6 | x6 | x6 | x6 | x6 | x6 | x6 | x6 | x6 | x6 | x6 |] %160

